app/images/beautiful-icon.svg

<svg xmlns="http://www.w3.org/2000/svg" viewBox="0 0 320 320" enable-background="new 0 0 320 320"><circle fill="#DDDCDC" cx="160" cy="160" r="160"/><path fill="#EEEEED" d="M160 320c64.1 0 119.4-37.7 144.9-92.1h-289.8c25.5 54.4 80.8 92.1 144.9 92.1z"/><path fill="#59C9BE" stroke="#30BCAE" stroke-width="2" stroke-miterlimit="10" d="M273.1 79h-226c-4 0-7.4 3-7.4 7v151c0 4 3.4 7.3 7.4 7.3h225.99999999999997c4 0 7.2-3.3 7.2-7.3v-151c0-4-3.2-7-7.2-7z"/><path fill="#319B9B" d="M130.6 261c-3.7 3.7-8.8 7.2-6.8 9 .5 1.1 2.8 1.7 8 1.7h58.599999999999994c5.9 0 8-1 8-2.4h-.2v-.5h-.2c-.3-1.9-4.2-4.8-7.2-7.9-4.6-4.7-5.4-14.5-5.5-16.8h-49.2c-.1 2.4-.8 12.1-5.5 16.9z"/><path fill="#fff" d="M270.2 212.8h-220.4v-124.2h220.3v124.2z"/><rect x="49.8" y="88.6" width="220.3" height="124.2" fill="none"/><circle fill="#30BCAE" cx="160" cy="232.6" r="4.7"/><circle fill="#009ECA" cx="160" cy="232.6" r="4.7"/><g fill="#005CB9"><rect x="117.9" y="122.2" width="18.8" height="80.5"/><rect x="85.2" y="99.2" width="18.8" height="103.5"/><rect x="150.6" y="145.2" width="18.8" height="57.5"/><rect x="183.3" y="168.2" width="18.8" height="34.5"/><rect x="216" y="191.2" width="18.8" height="11.5"/></g><g fill="#009ECA"><rect x="117.9" y="122.2" width="17.2" height="80.5"/><rect x="85.2" y="99.2" width="17.2" height="103.5"/><rect x="150.6" y="145.2" width="17.2" height="57.5"/><rect x="183.3" y="168.2" width="17.2" height="34.5"/><rect x="216" y="191.2" width="17.2" height="11.5"/></g><line stroke="#30BCAE" stroke-width="4" stroke-linecap="round" stroke-miterlimit="10" x1="270.2" y1="212.8" x2="49.8" y2="212.8" fill="none"/><polyline opacity=".39" fill="#fff" points="51.8,211.2 268.5,90.3 51.5,90.3 51.5,211.2"/></svg>

<?xml version="1.0" encoding="utf-8"?>
<!-- Generator: Adobe Illustrator 17.1.0, SVG Export Plug-In . SVG Version: 6.00 Build 0)  -->
<!DOCTYPE svg PUBLIC "-//W3C//DTD SVG 1.1//EN" "http://www.w3.org/Graphics/SVG/1.1/DTD/svg11.dtd">
<svg version="1.1" id="Layer_1" xmlns="http://www.w3.org/2000/svg" xmlns:xlink="http://www.w3.org/1999/xlink" x="0px" y="0px"
	 viewBox="0 0 320 320" enable-background="new 0 0 320 320" xml:space="preserve">
<circle fill="#DDDCDC" cx="160" cy="160" r="160"/>
<path fill="#EEEEED" d="M160,320c64.1,0,119.4-37.7,144.9-92.1H15.1C40.6,282.3,95.9,320,160,320z"/>
<g>
	<path fill="#59C9BE" stroke="#30BCAE" stroke-width="2" stroke-miterlimit="10" d="M273.1,79H162h-3.8H47.1c-4,0-7.4,3-7.4,7v137
		v0.5v12.7v0.8c0,4,3.4,7.3,7.4,7.3h82.7h6.3h49.2h3.7h84.1c4,0,7.2-3.3,7.2-7.3v-0.8v-12.7v-0.5v-137C280.3,82,277.1,79,273.1,79z"
		/>
	<path fill="#319B9B" d="M130.6,261c-3.7,3.7-8.8,7.2-6.8,9c0.5,1.1,2.8,1.7,8,1.7c11.4,0,23.8,0,28.4,0c1.1,0,1.8,0,1.8,0
		c4.5,0,16.9,0,28.4,0c5.9,0,8-1,8-2.4h-0.2v-0.5H198c-0.3-1.9-4.2-4.8-7.2-7.9c-4.6-4.7-5.4-14.5-5.5-16.8h-49.2
		C136,246.5,135.3,256.2,130.6,261z"/>
</g>
<path fill="#FFFFFF" d="M270.2,212.8H49.8V88.6h220.3V212.8z"/>
<rect x="49.8" y="88.6" fill="none" width="220.3" height="124.2"/>
<circle fill="#30BCAE" cx="160" cy="232.6" r="4.7"/>
<circle fill="#009ECA" cx="160" cy="232.6" r="4.7"/>
<g>
	<rect x="117.9" y="122.2" fill="#005CB9" width="18.8" height="80.5"/>
	<rect x="85.2" y="99.2" fill="#005CB9" width="18.8" height="103.5"/>
	<rect x="150.6" y="145.2" fill="#005CB9" width="18.8" height="57.5"/>
	<rect x="183.3" y="168.2" fill="#005CB9" width="18.8" height="34.5"/>
	<rect x="216" y="191.2" fill="#005CB9" width="18.8" height="11.5"/>
</g>
<g>
	<rect x="117.9" y="122.2" fill="#009ECA" width="17.2" height="80.5"/>
	<rect x="85.2" y="99.2" fill="#009ECA" width="17.2" height="103.5"/>
	<rect x="150.6" y="145.2" fill="#009ECA" width="17.2" height="57.5"/>
	<rect x="183.3" y="168.2" fill="#009ECA" width="17.2" height="34.5"/>
	<rect x="216" y="191.2" fill="#009ECA" width="17.2" height="11.5"/>
</g>
<line fill="none" stroke="#30BCAE" stroke-width="4" stroke-linecap="round" stroke-miterlimit="10" x1="270.2" y1="212.8" x2="49.8" y2="212.8"/>
<polyline opacity="0.39" fill="#FFFFFF" points="51.8,211.2 268.5,90.3 51.5,90.3 51.5,211.2 "/>
</svg>
